;FLAVOR:Marlin
;TIME:5086
;Filament used: 3.38905m
;Layer height: 0.2
;MINX:90.01
;MINY:90.01
;MINZ:0.2
;MAXX:144.99
;MAXY:144.99
;MAXZ:69
;Generated with Cura_SteamEngine main
M140 S50
M105
M190 S50
M104 S200
M105
M109 S200
M82 ;absolute extrusion mode
; Ender 3 Custom Start G-code
G92 E0 ; Reset Extruder
G28 ; Home all axes
G1 Z2.0 F3000 ; Move Z Axis up little to prevent scratching of Heat Bed
G1 X0.1 Y20 Z0.3 F5000.0 ; Move to start position
G1 X0.1 Y200.0 Z0.3 F1500.0 E15 ; Draw the first line
G1 X0.4 Y200.0 Z0.3 F5000.0 ; Move to side a little
G1 X0.4 Y20 Z0.3 F1500.0 E30 ; Draw the second line
G92 E0 ; Reset Extruder
G1 Z2.0 F3000 ; Move Z Axis up little to prevent scratching of Heat Bed
G1 X5 Y20 Z0.3 F5000.0 ; Move over to prevent blob squish
G92 E0
G92 E0
G1 F2700 E-5
;LAYER_COUNT:345
;LAYER:0
M107
G0 F6000 X98.085 Y98.039 Z0.2
G0 X93.81 Y103.656
;TYPE:SKIRT
G1 F2700 E0
G1 F1200 X94.16 Y103.022 E0.02409
G1 X94.648 Y102.221 E0.05528
G1 X95.186 Y101.484 E0.08563
G1 X95.601 Y100.963 E0.10779
G1 X97 Y99.258 E0.18114
G1 X97.449 Y98.728 E0.20424
G1 X98.085 Y98.039 E0.23543
G1 X98.746 Y97.433 E0.26526
G1 X99.37 Y96.907 E0.2924
G1 X100.782 Y95.748 E0.35316
G1 X101.472 Y95.196 E0.38255
G1 X102.229 Y94.642 E0.41375
G1 X102.996 Y94.174 E0.44363
G1 X103.554 Y93.864 E0.46486
G1 X105.569 Y92.786 E0.54087
G1 X106.143 Y92.49 E0.56235
G1 X106.995 Y92.096 E0.59357
G1 X107.835 Y91.79 E0.62331
G1 X108.654 Y91.529 E0.6519
G1 X110.584 Y90.944 E0.71897
G1 X111.225 Y90.759 E0.74116
G1 X112.136 Y90.538 E0.77234
G1 X113.033 Y90.398 E0.80254
G1 X113.684 Y90.324 E0.82433
G1 X115.75 Y90.12 E0.89338
G1 X116.579 Y90.049 E0.92105
G1 X117.516 Y90.01 E0.95224
G1 X118.428 Y90.049 E0.98261
G1 X119.306 Y90.124 E1.01191
G1 X121.079 Y90.299 E1.07117
G1 X121.96 Y90.398 E1.10066
G1 X122.887 Y90.543 E1.13187
G1 X123.781 Y90.761 E1.16247
G1 X124.417 Y90.945 E1.18449
G1 X126.458 Y91.564 E1.25543
G1 X127.143 Y91.782 E1.27934
G1 X128.024 Y92.104 E1.31054
G1 X128.826 Y92.476 E1.33994
G1 X129.545 Y92.846 E1.36684
G1 X131.391 Y93.835 E1.43649
G1 X132.012 Y94.18 E1.46012
G1 X132.812 Y94.67 E1.49132
G1 X133.519 Y95.188 E1.52047
G1 X134.028 Y95.593 E1.54211
G1 X135.747 Y97.004 E1.61607
G1 X136.28 Y97.456 E1.63932
G1 X136.968 Y98.092 E1.67048
G1 X137.582 Y98.764 E1.70076
G1 X138.092 Y99.37 E1.7271
G1 X139.338 Y100.889 E1.79244
G1 X139.802 Y101.469 E1.81715
G1 X140.356 Y102.226 E1.84835
G1 X140.83 Y103.003 E1.87862
G1 X141.22 Y103.709 E1.90545
G1 X142.137 Y105.424 E1.97013
G1 X142.507 Y106.139 E1.99691
G1 X142.901 Y106.99 E2.0281
G1 X143.205 Y107.82 E2.0575
G1 X143.471 Y108.654 E2.08661
G1 X144.056 Y110.584 E2.15369
G1 X144.241 Y111.225 E2.17588
G1 X144.462 Y112.136 E2.20706
G1 X144.601 Y113.031 E2.23718
G1 X144.693 Y113.848 E2.26453
G1 X144.88 Y115.749 E2.32806
G1 X144.951 Y116.58 E2.3558
G1 X144.99 Y117.517 E2.38699
G1 X144.951 Y118.428 E2.41732
G1 X144.876 Y119.306 E2.44663
G1 X144.701 Y121.079 E2.50589
G1 X144.603 Y121.952 E2.5351
G1 X144.458 Y122.878 E2.56628
G1 X144.248 Y123.743 E2.59588
G1 X144.063 Y124.389 E2.61823
G1 X143.435 Y126.463 E2.69031
G1 X143.217 Y127.147 E2.71419
G1 X142.894 Y128.028 E2.74539
G1 X142.524 Y128.826 E2.77465
G1 X142.154 Y129.545 E2.80155
G1 X141.165 Y131.391 E2.8712
G1 X140.82 Y132.012 E2.89483
G1 X140.33 Y132.812 E2.92603
G1 X139.81 Y133.521 E2.95527
G1 X139.408 Y134.026 E2.97674
G1 X138.047 Y135.684 E3.04809
G1 X137.56 Y136.261 E3.0732
G1 X136.925 Y136.951 E3.10439
G1 X136.242 Y137.578 E3.13523
G1 X135.577 Y138.137 E3.16412
G1 X134.226 Y139.245 E3.22224
G1 X133.508 Y139.818 E3.25279
G1 X132.75 Y140.37 E3.28398
G1 X131.991 Y140.833 E3.31355
G1 X131.254 Y141.24 E3.34155
G1 X129.596 Y142.126 E3.40407
G1 X128.858 Y142.508 E3.43171
G1 X128.007 Y142.902 E3.4629
G1 X127.171 Y143.208 E3.49251
G1 X126.503 Y143.422 E3.51584
G1 X124.416 Y144.056 E3.58839
G1 X123.775 Y144.241 E3.61058
G1 X122.864 Y144.462 E3.64176
G1 X121.967 Y144.602 E3.67195
G1 X121.316 Y144.676 E3.69375
G1 X119.25 Y144.88 E3.7628
G1 X118.421 Y144.951 E3.79047
G1 X117.484 Y144.99 E3.82166
G1 X116.582 Y144.952 E3.85169
G1 X115.731 Y144.88 E3.88009
G1 X113.891 Y144.698 E3.94159
G1 X113.065 Y144.606 E3.96923
G1 X112.138 Y144.463 E4.00043
G1 X111.223 Y144.24 E4.03175
G1 X110.394 Y143.999 E4.06047
G1 X108.694 Y143.483 E4.11956
G1 X107.836 Y143.21 E4.1495
G1 X106.956 Y142.887 E4.18068
G1 X106.137 Y142.505 E4.21074
G1 X105.393 Y142.12 E4.2386
G1 X103.786 Y141.261 E4.29921
G1 X103.009 Y140.832 E4.32873
G1 X102.209 Y140.344 E4.3599
G1 X101.495 Y139.822 E4.38931
G1 X100.843 Y139.302 E4.41705
G1 X99.305 Y138.039 E4.48324
G1 X98.727 Y137.55 E4.50843
G1 X98.038 Y136.914 E4.53961
G1 X97.418 Y136.237 E4.57015
G1 X96.863 Y135.577 E4.59883
G1 X95.652 Y134.099 E4.66238
G1 X95.177 Y133.502 E4.68775
G1 X94.625 Y132.744 E4.71894
G1 X94.163 Y131.984 E4.74852
G1 X93.76 Y131.254 E4.77626
G1 X92.874 Y129.596 E4.83878
G1 X92.491 Y128.856 E4.8665
G1 X92.097 Y128.005 E4.89769
G1 X91.788 Y127.159 E4.92764
G1 X91.575 Y126.492 E4.95093
G1 X90.942 Y124.409 E5.02334
G1 X90.756 Y123.763 E5.0457
G1 X90.536 Y122.851 E5.0769
G1 X90.397 Y121.956 E5.10703
G1 X90.307 Y121.151 E5.13397
G1 X90.12 Y119.251 E5.19747
G1 X90.049 Y118.42 E5.22521
G1 X90.01 Y117.483 E5.2564
G1 X90.048 Y116.581 E5.28643
G1 X90.12 Y115.733 E5.31473
G1 X90.302 Y113.892 E5.37626
G1 X90.398 Y113.038 E5.40485
G1 X90.543 Y112.112 E5.43602
G1 X90.762 Y111.218 E5.46663
G1 X90.999 Y110.401 E5.49493
G1 X91.516 Y108.696 E5.55419
G1 X91.79 Y107.835 E5.58424
G1 X92.113 Y106.955 E5.61542
G1 X92.496 Y106.133 E5.64558
G1 X92.832 Y105.483 E5.66992
G1 X93.81 Y103.656 E5.73884
G1 F2700 E0.73884
G0 F6000 X90.716 Y113.78
G1 F2700 E5.73884
G1 F1200 X90.795 Y113.083 E5.76217
G1 X90.939 Y112.174 E5.79278
G1 X91.146 Y111.33 E5.82169
G1 X91.382 Y110.517 E5.84984
G1 X91.899 Y108.812 E5.9091
G1 X92.171 Y107.957 E5.93894
G1 X92.489 Y107.093 E5.96956
G1 X92.852 Y106.316 E5.99809
G1 X93.258 Y105.532 E6.02745
G1 X94.094 Y103.97 E6.08638
G1 X94.51 Y103.215 E6.11505
G1 X94.99 Y102.429 E6.14568
G1 X95.499 Y101.734 E6.17433
G1 X96.008 Y101.096 E6.20148
G1 X97.305 Y99.516 E6.26947
G1 X97.754 Y98.986 E6.29257
G1 X98.379 Y98.31 E6.32319
G1 X99.004 Y97.738 E6.35137
G1 X99.511 Y97.31 E6.37344
G1 X101.144 Y95.97 E6.4437
G1 X101.721 Y95.509 E6.46826
G1 X102.465 Y94.966 E6.4989
G1 X103.19 Y94.524 E6.52714
G1 X103.898 Y94.132 E6.55406
G1 X105.613 Y93.215 E6.61874
G1 X106.327 Y92.846 E6.64547
G1 X107.163 Y92.46 E6.6761
G1 X107.957 Y92.171 E6.7042
G1 X108.77 Y91.912 E6.73258
G1 X110.556 Y91.37 E6.79466
G1 X111.336 Y91.144 E6.82167
G1 X112.23 Y90.927 E6.85227
G1 X113.078 Y90.796 E6.8808
G1 X113.888 Y90.705 E6.90791
G1 X115.936 Y90.504 E6.97636
G1 X116.612 Y90.447 E6.99892
G1 X117.532 Y90.41 E7.02955
G1 X118.394 Y90.448 E7.05824
G1 X119.267 Y90.522 E7.08739
G1 X121.04 Y90.697 E7.14664
G1 X121.915 Y90.795 E7.17593
G1 X122.825 Y90.938 E7.20656
G1 X123.67 Y91.146 E7.23551
G1 X124.434 Y91.368 E7.26197
G1 X126.337 Y91.945 E7.32811
G1 X127.022 Y92.163 E7.35202
G1 X127.886 Y92.48 E7.38263
G1 X128.643 Y92.832 E7.4104
G1 X129.356 Y93.199 E7.43707
G1 X131.197 Y94.185 E7.50653
G1 X131.818 Y94.53 E7.53016
G1 X132.602 Y95.012 E7.56077
G1 X133.27 Y95.501 E7.5883
G1 X133.779 Y95.906 E7.60993
G1 X135.488 Y97.309 E7.68348
G1 X136.021 Y97.761 E7.70672
G1 X136.696 Y98.386 E7.73732
G1 X137.276 Y99.021 E7.76592
G1 X137.782 Y99.624 E7.7921
G1 X139.025 Y101.139 E7.85728
G1 X139.489 Y101.719 E7.88199
G1 X140.033 Y102.462 E7.91261
G1 X140.48 Y103.197 E7.94123
G1 X140.868 Y103.898 E7.96788
G1 X141.785 Y105.613 E8.03256
G1 X142.152 Y106.322 E8.05911
G1 X142.538 Y107.158 E8.08974
G1 X142.824 Y107.943 E8.11753
G1 X143.088 Y108.77 E8.1464
G1 X143.63 Y110.556 E8.20848
G1 X143.856 Y111.336 E8.23549
G1 X144.073 Y112.23 E8.26609
G1 X144.204 Y113.076 E8.29456
G1 X144.295 Y113.887 E8.3217
G1 X144.496 Y115.937 E8.39021
G1 X144.553 Y116.614 E8.41281
G1 X144.59 Y117.534 E8.44343
G1 X144.552 Y118.394 E8.47206
G1 X144.478 Y119.267 E8.5012
G1 X144.303 Y121.04 E8.56046
G1 X144.206 Y121.907 E8.58948
G1 X144.063 Y122.816 E8.62008
G1 X143.863 Y123.633 E8.64806
G1 X143.632 Y124.435 E8.67582
G1 X143.053 Y126.342 E8.7421
G1 X142.835 Y127.026 E8.76598
G1 X142.518 Y127.89 E8.79659
G1 X142.168 Y128.643 E8.82421
G1 X141.801 Y129.356 E8.85088
G1 X140.815 Y131.197 E8.92034
G1 X140.47 Y131.818 E8.94397
G1 X139.988 Y132.602 E8.97458
G1 X139.497 Y133.272 E9.00221
G1 X138.994 Y133.902 E9.02902
G1 X137.833 Y135.316 E9.08987
G1 X137.254 Y136.003 E9.11976
G1 X136.631 Y136.68 E9.15036
G1 X135.985 Y137.272 E9.1795
G1 X135.432 Y137.738 E9.20355
G1 X133.972 Y138.936 E9.26637
G1 X133.259 Y139.505 E9.29671
G1 X132.515 Y140.047 E9.32732
G1 X131.797 Y140.483 E9.35526
G1 X131.066 Y140.887 E9.38304
G1 X129.408 Y141.773 E9.44557
G1 X128.675 Y142.152 E9.47301
G1 X127.839 Y142.538 E9.50364
G1 X127.049 Y142.827 E9.53162
G1 X126.381 Y143.041 E9.55495
G1 X124.447 Y143.629 E9.62218
G1 X123.664 Y143.856 E9.64929
G1 X122.77 Y144.073 E9.67989
G1 X121.922 Y144.204 E9.70843
G1 X121.112 Y144.295 E9.73554
G1 X119.064 Y144.496 E9.80399
G1 X118.388 Y144.553 E9.82655
G1 X117.468 Y144.59 E9.85717
G1 X116.615 Y144.553 E9.88557
G1 X115.771 Y144.482 E9.91374
G1 X113.8 Y144.286 E9.97962
G1 X113.109 Y144.209 E10.00275
G1 X112.199 Y144.067 E10.03338
G1 X111.334 Y143.856 E10.06299
G1 X110.64 Y143.655 E10.08702
G1 X108.662 Y143.054 E10.15578
G1 X107.958 Y142.829 E10.18036
G1 X107.094 Y142.511 E10.21098
G1 X106.321 Y142.15 E10.23936
G1 X105.582 Y141.767 E10.26704
G1 X103.975 Y140.908 E10.32765
G1 X103.203 Y140.482 E10.35698
G1 X102.418 Y140.002 E10.38758
G1 X101.744 Y139.509 E10.41535
G1 X101.096 Y138.993 E10.44291
G1 X99.685 Y137.835 E10.50362
G1 X98.986 Y137.244 E10.53406
G1 X98.309 Y136.62 E10.56468
G1 X97.724 Y135.98 E10.59352
G1 X97.172 Y135.323 E10.62206
G1 X95.965 Y133.85 E10.6854
G1 X95.49 Y133.253 E10.71078
G1 X94.949 Y132.508 E10.7414
G1 X94.513 Y131.79 E10.76934
G1 X94.113 Y131.066 E10.79685
G1 X93.227 Y129.408 E10.85938
G1 X92.847 Y128.673 E10.8869
G1 X92.46 Y127.837 E10.91754
G1 X92.169 Y127.038 E10.94582
G1 X91.956 Y126.371 E10.96911
G1 X91.327 Y124.298 E11.04116
G1 X91.141 Y123.652 E11.06352
G1 X90.925 Y122.757 E11.09414
G1 X90.794 Y121.911 E11.12261
G1 X90.721 Y121.266 E11.1442
G1 X90.504 Y119.063 E11.21783
G1 X90.447 Y118.386 E11.24043
G1 X90.41 Y117.466 E11.27105
G1 X90.447 Y116.614 E11.29942
G1 X90.518 Y115.772 E11.32752
G1 X90.716 Y113.78 E11.3941
G1 F2700 E6.3941
G0 F6000 X90.81 Y117.45
G1 F2700 E11.3941
G1 F1200 X90.845 Y116.647 E11.42083
G1 X90.916 Y115.812 E11.44871
G1 X91.098 Y113.971 E11.51024
G1 X91.193 Y113.128 E11.53845
G1 X91.334 Y112.236 E11.56849
G1 X91.53 Y111.441 E11.59572
G1 X91.765 Y110.633 E11.62371
G1 X92.327 Y108.783 E11.68802
G1 X92.552 Y108.079 E11.7126
G1 X92.865 Y107.232 E11.74263
G1 X93.207 Y106.5 E11.76951
G1 X93.611 Y105.721 E11.79869
G1 X94.51 Y104.042 E11.86204
G1 X94.86 Y103.408 E11.88613
G1 X95.331 Y102.638 E11.91615
G1 X95.812 Y101.983 E11.94318
G1 X96.317 Y101.35 E11.97011
G1 X97.61 Y99.775 E12.03788
G1 X98.059 Y99.245 E12.06099
G1 X98.673 Y98.582 E12.09104
G1 X99.262 Y98.044 E12.11758
G1 X99.769 Y97.616 E12.13964
G1 X101.394 Y96.282 E12.20957
G1 X101.971 Y95.821 E12.23413
G1 X102.701 Y95.289 E12.26418
G1 X103.384 Y94.874 E12.29076
G1 X104.086 Y94.485 E12.31745
G1 X105.936 Y93.497 E12.38721
G1 X106.51 Y93.201 E12.40869
G1 X107.33 Y92.823 E12.43872
G1 X108.078 Y92.552 E12.46518
G1 X108.741 Y92.34 E12.48833
G1 X110.806 Y91.713 E12.56011
G1 X111.447 Y91.528 E12.5823
G1 X112.325 Y91.316 E12.61234
G1 X113.123 Y91.193 E12.6392
G1 X113.774 Y91.119 E12.66099
G1 X115.97 Y90.903 E12.73438
G1 X116.646 Y90.846 E12.75695
G1 X117.548 Y90.81 E12.78697
G1 X118.361 Y90.846 E12.81404
G1 X119.228 Y90.92 E12.84298
G1 X121.001 Y91.095 E12.90224
G1 X121.87 Y91.193 E12.93132
G1 X122.762 Y91.334 E12.96136
G1 X123.559 Y91.53 E12.98866
G1 X124.318 Y91.75 E13.01494
G1 X126.215 Y92.326 E13.08088
G1 X126.9 Y92.544 E13.10479
G1 X127.748 Y92.856 E13.13484
G1 X128.461 Y93.188 E13.161
G1 X129.168 Y93.552 E13.18745
G1 X131.003 Y94.535 E13.25669
G1 X131.624 Y94.88 E13.28031
G1 X132.393 Y95.353 E13.31034
G1 X133.021 Y95.814 E13.33625
G1 X133.53 Y96.219 E13.35789
G1 X135.101 Y97.507 E13.42546
G1 X135.762 Y98.066 E13.45425
G1 X136.424 Y98.68 E13.48428
G1 X136.97 Y99.279 E13.51124
G1 X137.473 Y99.878 E13.53725
G1 X138.713 Y101.389 E13.60226
G1 X139.177 Y101.969 E13.62697
G1 X139.709 Y102.699 E13.65701
G1 X140.131 Y103.392 E13.684
G1 X140.515 Y104.086 E13.71038
G1 X141.432 Y105.801 E13.77506
G1 X141.796 Y106.505 E13.80142
G1 X142.174 Y107.325 E13.83145
G1 X142.443 Y108.065 E13.85764
G1 X142.705 Y108.886 E13.88631
G1 X143.287 Y110.806 E13.95303
G1 X143.472 Y111.447 E13.97522
G1 X143.684 Y112.325 E14.00527
G1 X143.807 Y113.121 E14.03206
G1 X143.881 Y113.771 E14.05381
G1 X144.084 Y115.827 E14.12253
G1 X144.154 Y116.647 E14.1499
G1 X144.19 Y117.55 E14.17996
G1 X144.154 Y118.361 E14.20696
G1 X144.08 Y119.228 E14.2359
G1 X143.905 Y121.001 E14.29516
G1 X143.808 Y121.862 E14.32398
G1 X143.667 Y122.754 E14.35401
G1 X143.479 Y123.523 E14.38034
G1 X143.25 Y124.319 E14.40789
G1 X142.716 Y126.081 E14.46913
G1 X142.454 Y126.904 E14.49786
G1 X142.142 Y127.752 E14.52791
G1 X141.812 Y128.461 E14.55392
G1 X141.448 Y129.168 E14.58037
G1 X140.465 Y131.003 E14.64961
G1 X140.12 Y131.624 E14.67323
G1 X139.647 Y132.393 E14.70326
G1 X139.184 Y133.023 E14.72927
G1 X138.685 Y133.648 E14.75587
G1 X137.436 Y135.168 E14.8213
G1 X136.949 Y135.745 E14.84641
G1 X136.336 Y136.409 E14.87647
G1 X135.727 Y136.966 E14.90392
G1 X135.069 Y137.519 E14.93251
G1 X133.718 Y138.627 E14.99062
G1 X133.01 Y139.192 E15.02075
G1 X132.279 Y139.723 E15.0508
G1 X131.603 Y140.133 E15.07709
G1 X131.017 Y140.458 E15.09938
G1 X129.089 Y141.489 E15.1721
G1 X128.492 Y141.797 E15.19444
G1 X127.671 Y142.175 E15.22451
G1 X126.927 Y142.446 E15.25084
G1 X126.112 Y142.706 E15.27929
G1 X124.331 Y143.247 E15.3412
G1 X123.553 Y143.472 E15.36814
G1 X122.675 Y143.684 E15.39818
G1 X121.877 Y143.807 E15.42504
G1 X121.226 Y143.881 E15.44683
G1 X119.03 Y144.097 E15.52022
G1 X118.354 Y144.154 E15.54278
G1 X117.452 Y144.19 E15.57281
G1 X116.649 Y144.155 E15.59954
G1 X115.966 Y144.098 E15.62234
G1 X113.844 Y143.888 E15.69326
G1 X113.153 Y143.811 E15.71638
G1 X112.261 Y143.672 E15.74641
G1 X111.445 Y143.471 E15.77436
G1 X110.626 Y143.233 E15.80273
G1 X108.784 Y142.673 E15.86676
G1 X108.08 Y142.448 E15.89135
G1 X107.233 Y142.135 E15.92138
G1 X106.504 Y141.795 E15.94813
G1 X105.898 Y141.482 E15.97082
G1 X104.164 Y140.556 E16.0362
G1 X103.397 Y140.132 E16.06535
G1 X102.627 Y139.66 E16.09539
G1 X101.993 Y139.196 E16.12152
G1 X101.35 Y138.684 E16.14886
G1 X99.939 Y137.526 E16.20957
G1 X99.244 Y136.939 E16.23983
G1 X98.581 Y136.326 E16.26986
G1 X98.03 Y135.722 E16.29705
G1 X97.481 Y135.069 E16.32542
G1 X96.278 Y133.601 E16.38855
G1 X95.803 Y133.004 E16.41393
G1 X95.273 Y132.273 E16.44396
G1 X94.863 Y131.596 E16.47028
G1 X94.466 Y130.877 E16.4976
G1 X93.511 Y129.088 E16.56505
G1 X93.202 Y128.489 E16.58747
G1 X92.824 Y127.669 E16.6175
G1 X92.55 Y126.916 E16.64415
G1 X92.294 Y126.111 E16.67224
G1 X91.753 Y124.33 E16.73415
G1 X91.525 Y123.541 E16.76147
G1 X91.314 Y122.663 E16.7915
G1 X91.192 Y121.866 E16.81832
G1 X91.103 Y121.073 E16.84486
G1 X90.903 Y119.03 E16.91314
G1 X90.846 Y118.353 E16.93573
G1 X90.81 Y117.45 E16.96579
G1 F2700 E11.96579
;MESH:tracer_sheath_v4.stl
G0 F6000 X113.41 Y121.587
G0 X117.5 Y123.104
;TYPE:WALL-INNER
G1 F2700 E16.96579
G1 F1200 X116.404 Y122.996 E17.00242
G1 X115.355 Y122.673 E17.03893
G1 X115.302 Y122.648 E17.04088
G1 X114.387 Y122.159 E17.07538
